public/sports/futbol.svg

<svg width="45" height="45" viewBox="0 0 45 45" fill="none" xmlns="http://www.w3.org/2000/svg">
<path d="M22.1484 5.3125C18.7491 5.3125 15.4261 6.32053 12.5996 8.20912C9.77311 10.0977 7.57015 12.782 6.26927 15.9226C4.96838 19.0632 4.62801 22.5191 5.2912 25.8531C5.95438 29.1872 7.59133 32.2497 9.99505 34.6534C12.3988 37.0571 15.4613 38.6941 18.7953 39.3572C22.1294 40.0204 25.5852 39.6801 28.7258 38.3792C31.8664 37.0783 34.5507 34.8753 36.4393 32.0489C38.3279 29.2224 39.3359 25.8994 39.3359 22.5C39.3309 17.9431 37.5185 13.5743 34.2963 10.3521C31.0741 7.12993 26.7053 5.3175 22.1484 5.3125ZM29.173 30.6503L27.1638 27.8848L29.5614 20.8998L32.815 19.8428L37.9111 23.7512C37.7203 26.1924 36.961 28.5551 35.6939 30.6503H29.173ZM15.1239 30.6503H8.60298C7.33589 28.5551 6.57659 26.1924 6.38579 23.7512L11.4819 19.8428L14.7355 20.8998L17.1331 27.8848L15.1239 30.6503ZM9.03266 13.6759L10.5572 18.8184L6.33595 22.0514C6.41877 19.0597 7.35438 16.1539 9.03266 13.6759ZM18.3895 27.3125L16.0933 20.6231L22.1484 16.4586L28.2036 20.6231L25.9074 27.3125H18.3895ZM33.7397 18.8184L35.2642 13.6759C36.9425 16.1539 37.8781 19.0597 37.9609 22.0514L33.7397 18.8184ZM34.233 12.3147L32.3905 18.5348L29.1249 19.5936L22.8359 15.2641V11.8609L28.4528 8.00062C30.6848 8.97652 32.6625 10.4526 34.233 12.3147ZM26.8819 7.41109L22.1484 10.6664L17.415 7.41109C20.4969 6.44628 23.8 6.44628 26.8819 7.41109ZM15.8441 8.00062L21.4609 11.8609V15.2641L15.1634 19.5936L11.8978 18.5348L10.0639 12.3147C11.6344 10.4526 13.6121 8.97652 15.8441 8.00062ZM9.53454 32.0253H14.9881L16.8959 37.4153C13.9681 36.3768 11.4088 34.5029 9.53454 32.0253ZM18.5236 37.8931L16.2428 31.4478L18.2503 28.6875H26.0466L28.0541 31.4478L25.7733 37.8931C23.3891 38.4523 20.9078 38.4523 18.5236 37.8931ZM27.4009 37.4153L29.3088 32.0253H34.7624C32.8881 34.5029 30.3288 36.3768 27.4009 37.4153Z" fill="white" stroke="black" stroke-width="0.5"/>
</svg>

<svg xmlns="http://www.w3.org/2000/svg" width="45" height="45" fill="none"><path fill="#fff" stroke="#000" stroke-width=".5" d="M22.15 5.31a17.19 17.19 0 1 0 0 34.38 17.19 17.19 0 0 0 0-34.38Zm7.02 25.34-2-2.77 2.4-6.98 3.24-1.06 5.1 3.91a15.7 15.7 0 0 1-2.22 6.9h-6.52Zm-14.05 0H8.6a15.7 15.7 0 0 1-2.21-6.9l5.1-3.9 3.25 1.05 2.4 6.98-2.02 2.77ZM9.03 13.68l1.53 5.14-4.22 3.23c.08-2.99 1.01-5.9 2.7-8.37ZM18.4 27.3l-2.3-6.69 6.06-4.16 6.05 4.16-2.3 6.7H18.4Zm15.35-8.5 1.52-5.13a15.71 15.71 0 0 1 2.7 8.37l-4.22-3.23Zm.5-6.5-1.85 6.22-3.27 1.06-6.28-4.33v-3.4L28.45 8c2.23.98 4.21 2.45 5.78 4.31Zm-7.36-4.9-4.73 3.26-4.73-3.26c3.08-.96 6.38-.96 9.46 0Zm-11.04.6 5.62 3.85v3.4l-6.3 4.33-3.26-1.06-1.84-6.22a15.89 15.89 0 0 1 5.78-4.3Zm-6.3 24.02h5.45l1.9 5.39a15.9 15.9 0 0 1-7.36-5.4Zm8.98 5.86-2.28-6.44 2.01-2.76h7.8l2 2.76-2.28 6.44c-2.38.56-4.86.56-7.25 0Zm8.88-.47 1.9-5.4h5.46a15.9 15.9 0 0 1-7.36 5.4Z"/></svg>
